X: 37082
T: Miss Jeany Abernethie's Reel
C:I.Cooper
O:Glen Collection
R:reel (originally strathspey)
B:RSCDS 37-8(a)
Z:1997 converted to reel by John Chambers <jc:trillian.mit.edu>
M:C
L:1/8
%
K:C
|: "C"cGEG cdec | "Dm"dfeg "G7"fdd2 | "C"cdec     Gcea | "G7"gfed "C"ecc2 :|
|| "C"gecg ecge | "Dm"fgag "G7"fdd2 | "C"gecg "Am"ecge | "G7"fagf "C"ecc2 ||
|| "C"gecg ecge | "Dm"fgag "G7"fdd2 | "C"cGce "Dm"dfeg | "G7"fagf "C"ecc2 |]
%%center Book37/37081-Miss_Jeany_Abernethies_Reel-JC.abc

%%sep 1 1 500
%%sep 1 1 500

